svg/clockface/clockfacesquaresolid/clock_09_50.svg

<?xml version="1.0" encoding="UTF-8" standalone="no"?>
<svg
   height="1000"
   width="1000"
   version="1.1"
   viewBox="0 0 1000 1000"
   id="svg7"
   sodipodi:docname="clock_09_50.svg"
   xmlns:inkscape="http://www.inkscape.org/namespaces/inkscape"
   xmlns:sodipodi="http://sodipodi.sourceforge.net/DTD/sodipodi-0.dtd"
   xmlns="http://www.w3.org/2000/svg"
   xmlns:svg="http://www.w3.org/2000/svg">
  <defs
     id="defs11" />
  <sodipodi:namedview
     id="namedview9"
     pagecolor="#ffffff"
     bordercolor="#000000"
     borderopacity="0.25"
     inkscape:showpageshadow="2"
     inkscape:pageopacity="0.0"
     inkscape:pagecheckerboard="0"
     inkscape:deskcolor="#d1d1d1" />
  <path
     id="path15"
     style="color:#000000;fill:#000000;stroke-width:60;-inkscape-stroke:none"
     d="M 129 129 L 129 159 L 129 869 L 869 869 L 869 129 L 129 129 z M 300.81445 355 A 30 30 0 0 1 315.81445 359.01953 L 515 474.01953 A 30.003 30.003 0 0 1 500 530 L 350 530 A 30 30 0 0 1 320 500 A 30 30 0 0 1 350 470 L 388.03906 470 L 285.81445 410.98047 A 30 30 0 0 1 271.07031 381.08398 A 30 30 0 0 1 274.83398 370 A 30 30 0 0 1 300.81445 355 z " />
</svg>

<svg xmlns="http://www.w3.org/2000/svg" width="1000" height="1000"><path d="M129 129v740h740V129H129zm171.814 226a30 30 0 0 1 15 4.02L515 474.02A30.003 30.003 0 0 1 500 530H350a30 30 0 0 1-30-30 30 30 0 0 1 30-30h38.04l-102.226-59.02a30 30 0 0 1-14.744-29.896A30 30 0 0 1 274.834 370a30 30 0 0 1 25.98-15z" style="-inkscape-stroke:none" stroke-width="60"/></svg>
